build/img/icon_vision_grid.svg

<svg width="11" height="11" fill="none" xmlns="http://www.w3.org/2000/svg"><path fill-rule="evenodd" clip-rule="evenodd" d="M5 0H0v5h5V0zm0 6H0v5h5V6zm1 0h5v5H6V6zm5-6H6v5h5V0z" fill="currentColor"/></svg>

<svg width="11" height="11" viewBox="0 0 11 11" fill="none" xmlns="http://www.w3.org/2000/svg">
<path fill-rule="evenodd" clip-rule="evenodd" d="M5 0H0V5H5V0ZM5 6H0V11H5V6ZM6 6H11V11H6V6ZM11 0H6V5H11V0Z" fill="currentColor"/>
</svg>
